Newaita-dark/.places-mint/24/folder-music.svg

<?xml version="1.0" encoding="UTF-8"?>
<svg xmlns="http://www.w3.org/2000/svg" xmlns:xlink="http://www.w3.org/1999/xlink" width="24px" height="24px" viewBox="0 0 24 24" version="1.1">
<defs>
<linearGradient id="linear0" gradientUnits="userSpaceOnUse" x1="254" y1="233.5" x2="254" y2="254.666672" gradientTransform="matrix(0.0468795,0,0,0.0468795,-0.0000028613,10.07909)">
<stop offset="0" style="stop-color:rgb(0%,0%,0%);stop-opacity:0.27451;"/>
<stop offset="1" style="stop-color:rgb(0%,0%,0%);stop-opacity:0;"/>
</linearGradient>
<radialGradient id="radial0" gradientUnits="userSpaceOnUse" cx="450.908936" cy="189.579361" fx="450.908936" fy="189.579361" r="21.166656" gradientTransform="matrix(0.000000130628,-0.0585994,-0.105479,-0.0000000761539,40.58641,47.696501)">
<stop offset="0" style="stop-color:rgb(0%,0%,0%);stop-opacity:0.313726;"/>
<stop offset="0.222222" style="stop-color:rgb(0%,0%,0%);stop-opacity:0.27451;"/>
<stop offset="1" style="stop-color:rgb(0%,0%,0%);stop-opacity:0;"/>
</radialGradient>
<radialGradient id="radial1" gradientUnits="userSpaceOnUse" cx="450.908936" cy="189.579361" fx="450.908936" fy="189.579361" r="21.166656" gradientTransform="matrix(-0.000000130628,0.0585994,0.105479,0.0000000761539,-16.771633,-5.645608)">
<stop offset="0" style="stop-color:rgb(0%,0%,0%);stop-opacity:0.313726;"/>
<stop offset="0.222222" style="stop-color:rgb(0%,0%,0%);stop-opacity:0.27451;"/>
<stop offset="1" style="stop-color:rgb(0%,0%,0%);stop-opacity:0;"/>
</radialGradient>
<radialGradient id="radial2" gradientUnits="userSpaceOnUse" cx="450.908936" cy="189.579361" fx="450.908936" fy="189.579361" r="21.166656" gradientTransform="matrix(-0.000000130628,-0.0585994,0.105479,-0.0000000761539,-16.771633,47.696501)">
<stop offset="0" style="stop-color:rgb(0%,0%,0%);stop-opacity:0.313726;"/>
<stop offset="0.222222" style="stop-color:rgb(0%,0%,0%);stop-opacity:0.27451;"/>
<stop offset="1" style="stop-color:rgb(0%,0%,0%);stop-opacity:0;"/>
</radialGradient>
<radialGradient id="radial3" gradientUnits="userSpaceOnUse" cx="450.908936" cy="189.579361" fx="450.908936" fy="189.579361" r="21.166656" gradientTransform="matrix(0.000000130628,0.0585994,-0.105479,0.0000000761539,40.586408,-5.645608)">
<stop offset="0" style="stop-color:rgb(0%,0%,0%);stop-opacity:0.313726;"/>
<stop offset="0.222222" style="stop-color:rgb(0%,0%,0%);stop-opacity:0.27451;"/>
<stop offset="1" style="stop-color:rgb(0%,0%,0%);stop-opacity:0;"/>
</radialGradient>
<linearGradient id="linear1" gradientUnits="userSpaceOnUse" x1="254" y1="-147.5" x2="254" y2="-31.083334" gradientTransform="matrix(0.0468795,0,0,0.0468795,0.000000937315,10.079086)">
<stop offset="0" style="stop-color:rgb(64.313728%,64.313728%,64.313728%);stop-opacity:0;"/>
<stop offset="1" style="stop-color:rgb(100%,100%,100%);stop-opacity:0.196078;"/>
</linearGradient>
<linearGradient id="linear2" gradientUnits="userSpaceOnUse" x1="254" y1="233.5" x2="254" y2="-105.166656" gradientTransform="matrix(0.0468795,0,0,0.0468795,-0.0000013593,10.079087)">
<stop offset="0" style="stop-color:rgb(34.509805%,34.509805%,34.509805%);stop-opacity:0;"/>
<stop offset="1" style="stop-color:rgb(98.039216%,98.039216%,98.039216%);stop-opacity:0.196078;"/>
</linearGradient>
</defs>
<g id="surface1">
<path style=" stroke:none;fill-rule:nonzero;fill:url(#linear0);" d="M 2.976562 21.027344 L 20.839844 21.027344 L 20.839844 22.019531 L 2.976562 22.019531 Z M 2.976562 21.027344 "/>
<path style=" stroke:none;fill-rule:nonzero;fill:url(#radial0);" d="M 20.839844 21.027344 L 22.824219 21.027344 L 22.824219 20.03125 L 20.839844 20.03125 Z M 20.839844 21.027344 "/>
<path style=" stroke:none;fill-rule:nonzero;fill:url(#radial1);" d="M 2.976562 21.027344 L 0.992188 21.027344 L 0.992188 22.019531 L 2.976562 22.019531 Z M 2.976562 21.027344 "/>
<path style=" stroke:none;fill-rule:nonzero;fill:url(#radial2);" d="M 2.976562 21.027344 L 0.992188 21.027344 L 0.992188 20.03125 L 2.976562 20.03125 Z M 2.976562 21.027344 "/>
<path style=" stroke:none;fill-rule:nonzero;fill:url(#radial3);" d="M 20.839844 21.027344 L 22.824219 21.027344 L 22.824219 22.019531 L 20.839844 22.019531 Z M 20.839844 21.027344 "/>
<path style=" stroke:none;fill-rule:nonzero;fill:rgb(61.176473%,80.000001%,39.607844%);fill-opacity:1;" d="M 5.457031 3.164062 L 21.582031 3.164062 C 22.128906 3.164062 22.574219 3.609375 22.574219 4.15625 L 22.574219 7.878906 C 22.574219 8.425781 22.128906 8.871094 21.582031 8.871094 L 5.457031 8.871094 C 4.910156 8.871094 4.464844 8.425781 4.464844 7.878906 L 4.464844 4.15625 C 4.464844 3.609375 4.910156 3.164062 5.457031 3.164062 Z M 5.457031 3.164062 "/>
<path style=" stroke:none;fill-rule:nonzero;fill:url(#linear1);" d="M 5.457031 3.164062 L 21.582031 3.164062 C 22.128906 3.164062 22.574219 3.609375 22.574219 4.15625 L 22.574219 7.878906 C 22.574219 8.425781 22.128906 8.871094 21.582031 8.871094 L 5.457031 8.871094 C 4.910156 8.871094 4.464844 8.425781 4.464844 7.878906 L 4.464844 4.15625 C 4.464844 3.609375 4.910156 3.164062 5.457031 3.164062 Z M 5.457031 3.164062 "/>
<path style=" stroke:none;fill-rule:nonzero;fill:rgb(90.196079%,90.196079%,90.196079%);fill-opacity:0.392157;" d="M 5.457031 3.230469 C 4.90625 3.230469 4.464844 3.671875 4.464844 4.222656 L 4.464844 4.347656 C 4.464844 3.796875 4.90625 3.355469 5.457031 3.355469 L 21.582031 3.355469 C 22.132812 3.355469 22.574219 3.796875 22.574219 4.347656 L 22.574219 4.222656 C 22.574219 3.671875 22.132812 3.230469 21.582031 3.230469 Z M 5.457031 3.230469 "/>
<path style=" stroke:none;fill-rule:nonzero;fill:rgb(12.941177%,12.941177%,12.941177%);fill-opacity:1;" d="M 5.457031 3.09375 C 4.871094 3.09375 4.394531 3.570312 4.394531 4.15625 L 4.394531 7.878906 C 4.394531 8.464844 4.871094 8.941406 5.457031 8.941406 L 21.582031 8.941406 C 22.167969 8.941406 22.644531 8.464844 22.644531 7.878906 L 22.644531 4.15625 C 22.644531 3.570312 22.167969 3.09375 21.582031 3.09375 Z M 5.457031 3.234375 L 21.582031 3.234375 C 22.09375 3.234375 22.503906 3.644531 22.503906 4.15625 L 22.503906 7.878906 C 22.503906 8.390625 22.09375 8.800781 21.582031 8.800781 L 5.457031 8.800781 C 4.945312 8.800781 4.535156 8.390625 4.535156 7.878906 L 4.535156 4.15625 C 4.535156 3.644531 4.945312 3.234375 5.457031 3.234375 Z M 5.457031 3.234375 "/>
<path style=" stroke:none;fill-rule:nonzero;fill:rgb(68.235296%,83.529413%,50.588238%);fill-opacity:1;" d="M 1.984375 5.148438 C 1.433594 5.148438 0.992188 5.589844 0.992188 6.140625 L 0.992188 20.03125 C 0.992188 20.582031 1.433594 21.027344 1.984375 21.027344 L 21.832031 21.027344 C 22.378906 21.027344 22.824219 20.582031 22.824219 20.03125 L 22.824219 7.628906 L 9.425781 7.628906 C 8.878906 7.628906 8.433594 7.1875 8.433594 6.636719 L 8.433594 5.148438 Z M 1.984375 5.148438 "/>
<path style=" stroke:none;fill-rule:nonzero;fill:url(#linear2);" d="M 1.984375 5.148438 C 1.433594 5.148438 0.992188 5.589844 0.992188 6.140625 L 0.992188 20.03125 C 0.992188 20.582031 1.433594 21.027344 1.984375 21.027344 L 21.832031 21.027344 C 22.378906 21.027344 22.824219 20.582031 22.824219 20.03125 L 22.824219 7.628906 L 9.425781 7.628906 C 8.878906 7.628906 8.433594 7.1875 8.433594 6.636719 L 8.433594 5.148438 Z M 1.984375 5.148438 "/>
<path style=" stroke:none;fill-rule:nonzero;fill:rgb(0%,0%,0%);fill-opacity:0.196078;" d="M 1.984375 21.027344 C 1.433594 21.027344 0.992188 20.582031 0.992188 20.03125 L 0.992188 19.910156 C 0.992188 20.457031 1.433594 20.902344 1.984375 20.902344 L 21.832031 20.902344 C 22.378906 20.902344 22.824219 20.457031 22.824219 19.910156 L 22.824219 20.03125 C 22.824219 20.582031 22.378906 21.027344 21.832031 21.027344 Z M 1.984375 21.027344 "/>
<path style=" stroke:none;fill-rule:nonzero;fill:rgb(90.196079%,90.196079%,90.196079%);fill-opacity:0.392157;" d="M 1.984375 5.210938 C 1.433594 5.210938 0.992188 5.652344 0.992188 6.203125 L 0.992188 6.328125 C 0.992188 5.777344 1.433594 5.335938 1.984375 5.335938 L 8.433594 5.335938 L 8.433594 5.210938 Z M 1.984375 5.210938 "/>
<path style=" stroke:none;fill-rule:nonzero;fill:rgb(90.196079%,90.196079%,90.196079%);fill-opacity:0.392157;" d="M 9.363281 7.753906 C 8.816406 7.753906 8.371094 7.3125 8.371094 6.761719 L 8.371094 6.636719 C 8.371094 7.1875 8.816406 7.628906 9.363281 7.628906 L 22.824219 7.628906 L 22.824219 7.753906 Z M 9.363281 7.753906 "/>
<path style=" stroke:none;fill-rule:nonzero;fill:rgb(12.941177%,12.941177%,12.941177%);fill-opacity:1;" d="M 1.984375 5.078125 C 1.398438 5.078125 0.921875 5.554688 0.921875 6.140625 L 0.921875 20.03125 C 0.921875 20.621094 1.398438 21.097656 1.984375 21.097656 L 21.832031 21.097656 C 22.417969 21.097656 22.894531 20.621094 22.894531 20.03125 L 22.894531 7.488281 L 9.425781 7.488281 C 8.914062 7.488281 8.503906 7.078125 8.503906 6.566406 L 8.503906 5.078125 Z M 1.984375 5.21875 L 8.363281 5.21875 L 8.363281 6.566406 C 8.363281 7.15625 8.839844 7.628906 9.425781 7.628906 L 22.753906 7.628906 L 22.753906 20.03125 C 22.753906 20.546875 22.34375 20.957031 21.832031 20.957031 L 1.984375 20.957031 C 1.472656 20.957031 1.0625 20.546875 1.0625 20.03125 L 1.0625 6.140625 C 1.0625 5.628906 1.472656 5.21875 1.984375 5.21875 Z M 1.984375 5.21875 "/>
<path style=" stroke:none;fill-rule:nonzero;fill:rgb(54.509807%,76.47059%,29.019609%);fill-opacity:1;" d="M 14.976562 9.597656 C 14.917969 9.597656 14.863281 9.609375 14.808594 9.628906 L 10.839844 11.117188 C 10.640625 11.191406 10.507812 11.382812 10.507812 11.597656 L 10.507812 15.167969 C 10.308594 15.105469 10.089844 15.070312 9.863281 15.070312 C 8.945312 15.070312 8.210938 15.625 8.210938 16.3125 C 8.210938 17 8.945312 17.550781 9.863281 17.550781 C 10.667969 17.550781 11.535156 17.058594 11.535156 16.3125 L 11.535156 11.957031 L 14.476562 10.851562 L 14.476562 14.105469 C 14.375 14.089844 14.269531 14.078125 14.164062 14.078125 C 13.429688 14.078125 12.839844 14.523438 12.839844 15.070312 C 12.839844 15.621094 13.429688 16.0625 14.164062 16.0625 C 14.882812 16.0625 15.503906 15.691406 15.503906 15.070312 L 15.503906 10.109375 C 15.503906 9.820312 15.265625 9.585938 14.976562 9.597656 Z M 14.976562 9.597656 "/>
<path style=" stroke:none;fill-rule:nonzero;fill:rgb(0%,0%,0%);fill-opacity:0.235294;" d="M 15 9.597656 C 14.992188 9.597656 14.984375 9.597656 14.976562 9.597656 C 14.917969 9.597656 14.863281 9.609375 14.808594 9.628906 L 10.839844 11.117188 C 10.640625 11.191406 10.507812 11.382812 10.507812 11.597656 L 10.507812 11.804688 C 10.507812 11.589844 10.640625 11.398438 10.839844 11.320312 L 14.808594 9.832031 C 14.863281 9.8125 14.917969 9.800781 14.976562 9.800781 C 15.265625 9.792969 15.503906 10.023438 15.503906 10.316406 L 15.503906 10.109375 C 15.503906 9.828125 15.28125 9.601562 15 9.597656 Z M 14.164062 14.078125 C 13.429688 14.078125 12.839844 14.523438 12.839844 15.070312 C 12.839844 15.105469 12.84375 15.140625 12.847656 15.171875 C 12.914062 14.671875 13.476562 14.285156 14.164062 14.285156 C 14.269531 14.285156 14.375 14.292969 14.476562 14.3125 L 14.476562 14.105469 C 14.375 14.089844 14.269531 14.078125 14.164062 14.078125 Z M 9.863281 15.070312 C 8.945312 15.070312 8.210938 15.625 8.210938 16.3125 C 8.210938 16.347656 8.210938 16.378906 8.214844 16.414062 C 8.285156 15.773438 8.992188 15.277344 9.863281 15.277344 C 10.089844 15.277344 10.308594 15.308594 10.507812 15.371094 L 10.507812 15.167969 C 10.308594 15.105469 10.089844 15.070312 9.863281 15.070312 Z M 9.863281 15.070312 "/>
<path style=" stroke:none;fill-rule:nonzero;fill:rgb(100%,100%,100%);fill-opacity:0.392157;" d="M 14.476562 10.914062 L 11.535156 12.015625 L 11.535156 12.140625 L 14.476562 11.039062 Z M 15.503906 15.132812 C 15.503906 15.753906 14.882812 16.125 14.164062 16.125 C 13.457031 16.125 12.886719 15.714844 12.84375 15.195312 C 12.839844 15.214844 12.839844 15.238281 12.839844 15.257812 C 12.839844 15.808594 13.429688 16.25 14.164062 16.25 C 14.882812 16.25 15.503906 15.878906 15.503906 15.257812 Z M 11.535156 16.375 C 11.535156 17.117188 10.667969 17.613281 9.863281 17.613281 C 8.972656 17.613281 8.253906 17.09375 8.210938 16.4375 C 8.210938 16.457031 8.210938 16.476562 8.210938 16.5 C 8.210938 17.183594 8.945312 17.738281 9.863281 17.738281 C 10.667969 17.738281 11.535156 17.242188 11.535156 16.5 Z M 11.535156 16.375 "/>
<path style="fill:none;stroke-width:2.5;stroke-linecap:round;stroke-linejoin:round;stroke:rgb(12.941177%,12.941177%,12.941177%);stroke-opacity:1;stroke-miterlimit:4;" d="M 319.469492 -10.269551 C 318.219612 -10.269551 317.053056 -10.019575 315.886501 -9.602948 L 231.227919 22.144021 C 226.978325 23.727203 224.145262 27.810146 224.145262 32.393042 L 224.145262 108.552436 C 219.895668 107.21923 215.229447 106.469301 210.396575 106.469301 C 190.815111 106.469301 175.149941 118.301505 175.149941 132.966771 C 175.149941 147.632037 190.815111 159.380915 210.396575 159.380915 C 227.561602 159.380915 246.059836 148.881918 246.059836 132.966771 L 246.059836 40.058976 L 308.803844 16.477895 L 308.803844 85.887933 C 306.637384 85.554632 304.387599 85.304656 302.137814 85.304656 C 286.472643 85.304656 273.890511 94.803749 273.890511 106.469301 C 273.890511 118.218179 286.472643 127.633947 302.137814 127.633947 C 317.469683 127.633947 330.718418 119.718036 330.718418 106.469301 L 330.718418 0.646073 C 330.718418 -5.520004 325.63557 -10.519527 319.469492 -10.269551 Z M 319.469492 -10.269551 " transform="matrix(0.0468795,0,0,0.0468795,0,10.079087)"/>
</g>
</svg>

<svg xmlns="http://www.w3.org/2000/svg" width="24" height="24"><defs><linearGradient id="a" gradientUnits="userSpaceOnUse" x1="254" y1="233.5" x2="254" y2="254.667" gradientTransform="matrix(.04688 0 0 .04688 0 10.08)"><stop offset="0" stop-opacity=".275"/><stop offset="1" stop-opacity="0"/></linearGradient><radialGradient id="b" gradientUnits="userSpaceOnUse" cx="450.909" cy="189.579" fx="450.909" fy="189.579" r="21.167" gradientTransform="matrix(0 -.0586 -.10548 0 40.586 47.697)"><stop offset="0" stop-opacity=".314"/><stop offset=".222" stop-opacity=".275"/><stop offset="1" stop-opacity="0"/></radialGradient><radialGradient id="c" gradientUnits="userSpaceOnUse" cx="450.909" cy="189.579" fx="450.909" fy="189.579" r="21.167" gradientTransform="matrix(0 .0586 .10548 0 -16.772 -5.646)"><stop offset="0" stop-opacity=".314"/><stop offset=".222" stop-opacity=".275"/><stop offset="1" stop-opacity="0"/></radialGradient><radialGradient id="d" gradientUnits="userSpaceOnUse" cx="450.909" cy="189.579" fx="450.909" fy="189.579" r="21.167" gradientTransform="matrix(0 -.0586 .10548 0 -16.772 47.697)"><stop offset="0" stop-opacity=".314"/><stop offset=".222" stop-opacity=".275"/><stop offset="1" stop-opacity="0"/></radialGradient><radialGradient id="e" gradientUnits="userSpaceOnUse" cx="450.909" cy="189.579" fx="450.909" fy="189.579" r="21.167" gradientTransform="matrix(0 .0586 -.10548 0 40.586 -5.646)"><stop offset="0" stop-opacity=".314"/><stop offset=".222" stop-opacity=".275"/><stop offset="1" stop-opacity="0"/></radialGradient><linearGradient id="f" gradientUnits="userSpaceOnUse" x1="254" y1="-147.5" x2="254" y2="-31.083" gradientTransform="matrix(.04688 0 0 .04688 0 10.08)"><stop offset="0" stop-color="#a4a4a4" stop-opacity="0"/><stop offset="1" stop-color="#fff" stop-opacity=".196"/></linearGradient><linearGradient id="g" gradientUnits="userSpaceOnUse" x1="254" y1="233.5" x2="254" y2="-105.167" gradientTransform="matrix(.04688 0 0 .04688 0 10.08)"><stop offset="0" stop-color="#585858" stop-opacity="0"/><stop offset="1" stop-color="#fafafa" stop-opacity=".196"/></linearGradient><linearGradient id="h" gradientUnits="userSpaceOnUse" x1="254" y1="-147.5" x2="254" y2="233.5" gradientTransform="matrix(.04688 0 0 .04688 0 10.08)"><stop offset="0" stop-color="#a4a4a4" stop-opacity="0"/><stop offset="1" stop-color="#fff" stop-opacity=".196"/></linearGradient></defs><path d="M2.977 21.027H20.84v.993H2.977zm0 0" fill="url(#a)"/><path d="M20.84 21.027h1.984v-.996H20.84zm0 0" fill="url(#b)"/><path d="M2.977 21.027H.992v.993h1.985zm0 0" fill="url(#c)"/><path d="M2.977 21.027H.992v-.996h1.985zm0 0" fill="url(#d)"/><path d="M20.84 21.027h1.984v.993H20.84zm0 0" fill="url(#e)"/><path d="M5.457 3.164h16.125c.547 0 .992.445.992.992V7.88a.994.994 0 0 1-.992.992H5.457a.994.994 0 0 1-.992-.992V4.156c0-.547.445-.992.992-.992zm0 0" fill="#7cb342"/><path d="M5.457 3.164h16.125c.547 0 .992.445.992.992V7.88a.994.994 0 0 1-.992.992H5.457a.994.994 0 0 1-.992-.992V4.156c0-.547.445-.992.992-.992zm0 0" fill="url(#f)"/><path d="M5.457 3.164a.989.989 0 0 0-.992.992v.125c0-.55.441-.992.992-.992h16.125c.55 0 .992.441.992.992v-.125a.989.989 0 0 0-.992-.992zm0 0" fill="#e6e6e6" fill-opacity=".588"/><path d="M5.457 3.094c-.586 0-1.062.476-1.062 1.062V7.88c0 .586.476 1.062 1.062 1.062h16.125c.586 0 1.063-.476 1.063-1.062V4.156c0-.586-.477-1.062-1.063-1.062zm0 .14h16.125c.512 0 .922.41.922.922V7.88c0 .512-.41.922-.922.922H5.457a.919.919 0 0 1-.922-.922V4.156c0-.511.41-.922.922-.922zm0 0" fill="#212121"/><path d="M1.984 5.148a.989.989 0 0 0-.992.993v13.89c0 .551.442.996.992.996h19.848a.994.994 0 0 0 .992-.996V7.63H9.426a.991.991 0 0 1-.992-.992V5.148zm0 0" fill="#9ccc65"/><path d="M1.984 5.148a.989.989 0 0 0-.992.993v13.89c0 .551.442.996.992.996h19.848a.994.994 0 0 0 .992-.996V7.63H9.426a.991.991 0 0 1-.992-.992V5.148zm0 0" fill="url(#g)"/><path d="M1.984 21.027a.992.992 0 0 1-.992-.996v-.12c0 .546.442.991.992.991h19.848a.994.994 0 0 0 .992-.992v.121c0 .551-.445.996-.992.996zm0 0" fill-opacity=".196"/><path d="M1.984 5.148a.989.989 0 0 0-.992.993v.125c0-.551.442-.993.992-.993h6.45v-.125zm0 0M9.363 7.691a.991.991 0 0 1-.992-.992v-.125c0 .551.445.996.992.992h13.461v.125zm0 0" fill="#e6e6e6" fill-opacity=".937"/><path d="M1.984 5.078c-.586 0-1.062.477-1.062 1.063v13.89c0 .59.476 1.067 1.062 1.067h19.848c.586 0 1.063-.477 1.063-1.067V7.488H9.425a.919.919 0 0 1-.921-.922V5.078zm0 .14h6.38v1.348c0 .59.476 1.063 1.062 1.063h13.328V20.03a.92.92 0 0 1-.922.926H1.984a.92.92 0 0 1-.921-.926V6.141c0-.512.41-.922.921-.922zm0 0" fill="#212121"/><path d="M10.914 9.633c-.273 0-.496.258-.496.574v4.953a1.692 1.692 0 0 0-.496-.07c-.824 0-1.488.55-1.488 1.238s.664 1.242 1.488 1.242 1.488-.554 1.488-1.242v-5.457c0-.137.113-.246.25-.246h2.48c.137 0 .247.11.247.246v2.8a1.692 1.692 0 0 0-.496-.07c-.825 0-1.489.551-1.489 1.239 0 .687.664 1.242 1.489 1.242.824 0 1.488-.555 1.488-1.242v-4.633c0-.316-.219-.574-.496-.574zm0 0" fill="#7cb342"/><path d="M10.914 9.633c-.273 0-.496.258-.496.574v4.953a1.692 1.692 0 0 0-.496-.07c-.824 0-1.488.55-1.488 1.238s.664 1.242 1.488 1.242 1.488-.554 1.488-1.242v-5.457c0-.137.113-.246.25-.246h2.48c.137 0 .247.11.247.246v2.8a1.692 1.692 0 0 0-.496-.07c-.825 0-1.489.551-1.489 1.239 0 .687.664 1.242 1.489 1.242.824 0 1.488-.555 1.488-1.242v-4.633c0-.316-.219-.574-.496-.574zm0 0" fill="url(#h)"/><path d="M10.914 9.563c-.316 0-.566.292-.566.644v4.863a1.896 1.896 0 0 0-.426-.05c-.856 0-1.559.578-1.559 1.308 0 .735.703 1.313 1.559 1.313.855 0 1.558-.578 1.558-1.313v-5.457c0-.098.079-.176.18-.176h2.48c.098 0 .176.078.176.176v2.711a1.87 1.87 0 0 0-.425-.05c-.856 0-1.559.577-1.559 1.308 0 .734.703 1.312 1.559 1.312.855 0 1.558-.578 1.558-1.312v-4.633c0-.352-.246-.645-.566-.645zm0 .14h3.969c.23 0 .426.219.426.504v4.633c0 .64-.625 1.172-1.418 1.172-.793 0-1.418-.532-1.418-1.172 0-.64.625-1.168 1.418-1.168.168 0 .328.023.476.066l.09.028V10.87a.315.315 0 0 0-.316-.316h-2.48c-.177 0-.321.14-.321.316v5.457c0 .645-.625 1.172-1.418 1.172-.793 0-1.418-.527-1.418-1.172 0-.64.625-1.168 1.418-1.168.168 0 .328.024.476.067l.09.027v-5.047c0-.285.196-.504.426-.504zm0 0" fill="#212121"/></svg>
